Suru++-Ubuntu/apps/symbolic/draftsight-symbolic.svg

<svg version="1.1" viewBox="0 0 16 16" xmlns="http://www.w3.org/2000/svg">
 <defs>
  <style type="text/css">.ColorScheme-Text { color:#808080; }</style>
 </defs>
 <path class="ColorScheme-Text" d="m12.5 2a1.5 1.5 0 0 0-1.412109 1h-9.087891v1c1.85517 0.95878 3.1650519 2.4794944 3.3574219 3.3027344 0.2614991 1.1190795-0.1418953 2.4311478-1.1855469 3.8574216a1.4999979 1.4999852 0 0 0-0.671875-0.160156 1.4999979 1.4999852 0 0 0-1.5 1.5 1.4999979 1.4999852 0 0 0 1.5 1.5 1.4999979 1.4999852 0 0 0 1.4121094-1h4.0878906v1h3v-3h-3v1h-4.0878906a1.4999979 1.4999852 0 0 0-0.0371094-0.095703c1.3039475-1.679648 1.8985438-3.2500097 1.5507812-4.763672-0.2937586-1.2786393-1.1844279-2.2761238-2.4570312-3.140625h7.119141a1.5 1.5 0 0 0 1.412109 1 1.5 1.5 0 0 0 1.5-1.5 1.5 1.5 0 0 0-1.5-1.5zm0 1a0.5 0.5 0 0 1 0.5 0.5 0.5 0.5 0 0 1-0.5 0.5 0.5 0.5 0 0 1-0.5-0.5 0.5 0.5 0 0 1 0.5-0.5zm-9 9a0.5 0.5 0 0 1 0.4941406 0.435547 0.5 0.5 0 0 1 0.0039063 0.029297 0.5 0.5 0 0 1 0.0019531 0.019531 0.5 0.5 0 0 1 0 0.015625 0.5 0.5 0 0 1-0.5 0.5 0.5 0.5 0 0 1-0.4921875-0.414062 0.5 0.5 0 0 1 0-0.001954 0.5 0.5 0 0 1-0.0078125-0.083984 0.5 0.5 0 0 1 0.0019531-0.050781 0.5 0.5 0 0 1 0.4980469-0.449219zm6.5 0h1v1h-1v-1z" style="fill:currentColor"/>
</svg>

<svg xmlns="http://www.w3.org/2000/svg" version="1.1" viewBox="0 0 16 16">
 <defs>
  <style id="current-color-scheme" type="text/css">
   .ColorScheme-Text { color:#808080; }
  </style>
 </defs>
 <path style="fill:currentColor;" class="ColorScheme-Text" d="M 12.5 2 A 1.5 1.5 0 0 0 11.087891 3 L 2 3 L 2 4 C 3.85517 4.95878 5.1650519 6.4794944 5.3574219 7.3027344 C 5.618921 8.4218139 5.2155266 9.7338822 4.171875 11.160156 A 1.4999979 1.4999852 0 0 0 3.5 11 A 1.4999979 1.4999852 0 0 0 2 12.5 A 1.4999979 1.4999852 0 0 0 3.5 14 A 1.4999979 1.4999852 0 0 0 4.9121094 13 L 9 13 L 9 14 L 12 14 L 12 11 L 9 11 L 9 12 L 4.9121094 12 A 1.4999979 1.4999852 0 0 0 4.875 11.904297 C 6.1789475 10.224649 6.7735438 8.6542873 6.4257812 7.140625 C 6.1320226 5.8619857 5.2413533 4.8645012 3.96875 4 L 11.087891 4 A 1.5 1.5 0 0 0 12.5 5 A 1.5 1.5 0 0 0 14 3.5 A 1.5 1.5 0 0 0 12.5 2 z M 12.5 3 A 0.5 0.5 0 0 1 13 3.5 A 0.5 0.5 0 0 1 12.5 4 A 0.5 0.5 0 0 1 12 3.5 A 0.5 0.5 0 0 1 12.5 3 z M 3.5 12 A 0.5 0.5 0 0 1 3.9941406 12.435547 A 0.5 0.5 0 0 1 3.9980469 12.464844 A 0.5 0.5 0 0 1 4 12.484375 A 0.5 0.5 0 0 1 4 12.5 A 0.5 0.5 0 0 1 3.5 13 A 0.5 0.5 0 0 1 3.0078125 12.585938 A 0.5 0.5 0 0 1 3.0078125 12.583984 A 0.5 0.5 0 0 1 3 12.5 A 0.5 0.5 0 0 1 3.0019531 12.449219 A 0.5 0.5 0 0 1 3.5 12 z M 10 12 L 11 12 L 11 13 L 10 13 L 10 12 z"/>
</svg>
